assets/img/tasses/TasseBSimo.svg

<?xml version="1.0" encoding="utf-8"?>
<!-- generated at drububu.com  -->
<!DOCTYPE svg PUBLIC "-//W3C//DTD SVG 1.1//EN" "http://www.w3.org/Graphics/SVG/1.1/DTD/svg11.dtd">
<svg version="1.1" preserveAspectRatio="xMinYMin meet" xmlns="http://www.w3.org/2000/svg" xmlns:xlink="http://www.w3.org/1999/xlink" x="0px" y="0px" width="22px" height="16px" viewBox="0 0 22 16">
<path d="M0 0h2v2h-2v-2z" fill="rgba(255,255,255,0)"/>
<path d="M2 0h2v2h-2v-2z" fill="rgb(111,188,255)"/>
<path d="M4 0h2v2h-2v-2z" fill="rgb(82,199,255)"/>
<path d="M6 0h10v2h-10v-2z" fill="rgb(111,188,255)"/>
<path d="M16 0h6v4h-2v-2h-4v-2z" fill="rgba(255,255,255,0)"/>
<path d="M0 2h2v2h-2v-2z" fill="rgb(82,199,255)"/>
<path d="M2 2h14v10h-6v-2h-2v2h-6v-4h4v-4h-4v-2z" fill="rgb(30,143,255)"/>
<path d="M16 2h4v2h-4v-2z" fill="rgb(111,188,255)"/>
<path d="M0 4h2v6h-2v-6z" fill="rgb(111,188,255)"/>
<path d="M2 4h2v2h-2v-2z" fill="rgb(15,15,255)"/>
<path d="M4 4h2v2h-2v-2z" fill="rgb(29,29,255)"/>
<path d="M10 4h2v2h-2v-2z" fill="rgb(15,15,255)"/>
<path d="M12 4h2v2h-2v-2z" fill="rgb(29,29,255)"/>
<path d="M16 4h2v2h-2v-2z" fill="rgb(27,131,229)"/>
<path d="M18 4h2v4h-2v-4z" fill="rgb(29,139,242)"/>
<path d="M20 4h2v4h-2v-4z" fill="rgb(111,188,255)"/>
<path d="M2 6h2v2h-2v-2z" fill="rgb(0,0,255)"/>
<path d="M4 6h2v2h-2v-2z" fill="rgb(15,15,255)"/>
<path d="M10 6h2v2h-2v-2z" fill="rgb(0,0,255)"/>
<path d="M12 6h2v2h-2v-2z" fill="rgb(15,15,255)"/>
<path d="M16 6h2v2h-2v-2z" fill="rgb(106,181,242)"/>
<path d="M16 8h2v2h-2v-2z" fill="rgb(27,131,229)"/>
<path d="M18 8h2v2h-2v-2z" fill="rgb(111,188,255)"/>
<path d="M20 8h2v8h-8v-2h2v-2h2v-2h2v-2z" fill="rgba(255,255,255,0)"/>
<path d="M0 10h2v2h-2v-2z" fill="rgb(106,181,242)"/>
<path d="M8 10h2v2h-2v-2z" fill="rgb(0,0,255)"/>
<path d="M16 10h2v2h-2v-2z" fill="rgb(82,199,255)"/>
<path d="M0 12h2v2h2v2h-4v-4z" fill="rgba(255,255,255,0)"/>
<path d="M2 12h2v2h-2v-2z" fill="rgb(82,199,255)"/>
<path d="M4 12h10v2h-10v-2z" fill="rgb(27,131,229)"/>
<path d="M14 12h2v2h-2v-2z" fill="rgb(106,181,242)"/>
<path d="M4 14h10v2h-10v-2z" fill="rgb(100,171,229)"/>
</svg>

<svg xmlns="http://www.w3.org/2000/svg" width="22" height="16" preserveAspectRatio="xMinYMin meet"><path fill="rgba(255,255,255,0)" d="M0 0h2v2H0V0z"/><path fill="#6FBCFF" d="M2 0h2v2H2V0z"/><path fill="#52C7FF" d="M4 0h2v2H4V0z"/><path fill="#6FBCFF" d="M6 0h10v2H6V0z"/><path fill="rgba(255,255,255,0)" d="M16 0h6v4h-2V2h-4V0z"/><path fill="#52C7FF" d="M0 2h2v2H0V2z"/><path fill="#1E8FFF" d="M2 2h14v10h-6v-2H8v2H2V8h4V4H2V2z"/><path fill="#6FBCFF" d="M16 2h4v2h-4V2zM0 4h2v6H0V4z"/><path fill="#0F0FFF" d="M2 4h2v2H2V4z"/><path fill="#1D1DFF" d="M4 4h2v2H4V4z"/><path fill="#0F0FFF" d="M10 4h2v2h-2V4z"/><path fill="#1D1DFF" d="M12 4h2v2h-2V4z"/><path fill="#1B83E5" d="M16 4h2v2h-2V4z"/><path fill="#1D8BF2" d="M18 4h2v4h-2V4z"/><path fill="#6FBCFF" d="M20 4h2v4h-2V4z"/><path fill="#00F" d="M2 6h2v2H2V6z"/><path fill="#0F0FFF" d="M4 6h2v2H4V6z"/><path fill="#00F" d="M10 6h2v2h-2V6z"/><path fill="#0F0FFF" d="M12 6h2v2h-2V6z"/><path fill="#6AB5F2" d="M16 6h2v2h-2V6z"/><path fill="#1B83E5" d="M16 8h2v2h-2V8z"/><path fill="#6FBCFF" d="M18 8h2v2h-2V8z"/><path fill="rgba(255,255,255,0)" d="M20 8h2v8h-8v-2h2v-2h2v-2h2V8z"/><path fill="#6AB5F2" d="M0 10h2v2H0v-2z"/><path fill="#00F" d="M8 10h2v2H8v-2z"/><path fill="#52C7FF" d="M16 10h2v2h-2v-2z"/><path fill="rgba(255,255,255,0)" d="M0 12h2v2h2v2H0v-4z"/><path fill="#52C7FF" d="M2 12h2v2H2v-2z"/><path fill="#1B83E5" d="M4 12h10v2H4v-2z"/><path fill="#6AB5F2" d="M14 12h2v2h-2v-2z"/><path fill="#64ABE5" d="M4 14h10v2H4v-2z"/></svg>
